_includes/icons/ios-archive-folder.svg

<svg fill="#666" height="50" viewBox="0 0 50 50" width="50" xmlns="http://www.w3.org/2000/svg"><path d="m5 4c-1.644531 0-3 1.355469-3 3v36c0 1.644531 1.355469 3 3 3h40c1.644531 0 3-1.355469 3-3v-32c0-1.644531-1.355469-3-3-3h-27c.085938 0-.03125 0-.277344-.28125-.242187-.28125-.542968-.75-.859375-1.25-.3125-.5-.640625-1.035156-1.054687-1.507812-.417969-.46875-.988281-.960938-1.808594-.960938zm0 2h9c-.0625 0 .0625.007813.308594.289063.246094.277343.546875.742187.863281 1.242187.09375.152344.195313.3125.296875.46875h-10.46875c-.351562 0-.683594.074219-1 .1875v-1.1875c0-.5625.4375-1 1-1zm0 4h17v13.28125c-.59375.351563-1 .988281-1 1.71875v2c0 .832031.527344 1.554688 1.261719 1.851563-.144531.558593-.242188.921875-.484375 1.945312-.1875.800781-.378906 1.640625-.523438 2.371094-.144531.726562-.253906 1.285156-.253906 1.792969 0 2.210937 1.796875 4.039062 4 4.039062s4-1.828125 4-4.039062c0-.507813-.109375-1.066407-.253906-1.792969-.144531-.730469-.335938-1.570313-.523438-2.371094-.242187-1.023437-.339843-1.386719-.484375-1.945312.734375-.296875 1.261719-1.019532 1.261719-1.851563v-2c0-.730469-.40625-1.367187-1-1.71875v-13.28125h17c.5625 0 1 .4375 1 1v32c0 .5625-.4375 1-1 1h-40c-.5625 0-1-.4375-1-1v-32c0-.566406.433594-1 1-1zm19 0h2v4h-1v2h1v4h-1v2h1v1h-2v-4h1v-2h-1v-4h1v-2h-1zm-1 15h4v2h-4zm1.28125 4h1.4375c.121094.472656.28125 1.070313.558594 2.253906.1875.789063.371094 1.609375.507812 2.300782.136719.691406.214844 1.308593.214844 1.40625 0 1.132812-.902344 2.039062-2 2.039062s-2-.90625-2-2.039062c0-.097657.078125-.714844.214844-1.40625.136719-.691407.320312-1.511719.507812-2.300782.277344-1.183593.4375-1.78125.558594-2.253906zm.71875 5c-.542969 0-.988281.449219-.984375 1-.003906.550781.441406 1 .984375 1s.988281-.449219.984375-1c.003906-.550781-.441406-1-.984375-1z"/></svg>

<svg xmlns="http://www.w3.org/2000/svg" viewBox="0 0 50 50" width="50" height="50" fill="#666"><path d="M 5 4 C 3.355469 4 2 5.355469 2 7 L 2 43 C 2 44.644531 3.355469 46 5 46 L 45 46 C 46.644531 46 48 44.644531 48 43 L 48 11 C 48 9.355469 46.644531 8 45 8 L 18 8 C 18.085938 8 17.96875 8 17.722656 7.71875 C 17.480469 7.4375 17.179688 6.96875 16.863281 6.46875 C 16.550781 5.96875 16.222656 5.433594 15.808594 4.960938 C 15.390625 4.492188 14.820313 4 14 4 Z M 5 6 L 14 6 C 13.9375 6 14.0625 6.007813 14.308594 6.289063 C 14.554688 6.566406 14.855469 7.03125 15.171875 7.53125 C 15.265625 7.683594 15.367188 7.84375 15.46875 8 L 5 8 C 4.648438 8 4.316406 8.074219 4 8.1875 L 4 7 C 4 6.4375 4.4375 6 5 6 Z M 5 10 L 22 10 L 22 23.28125 C 21.40625 23.632813 21 24.269531 21 25 L 21 27 C 21 27.832031 21.527344 28.554688 22.261719 28.851563 C 22.117188 29.410156 22.019531 29.773438 21.777344 30.796875 C 21.589844 31.597656 21.398438 32.4375 21.253906 33.167969 C 21.109375 33.894531 21 34.453125 21 34.960938 C 21 37.171875 22.796875 39 25 39 C 27.203125 39 29 37.171875 29 34.960938 C 29 34.453125 28.890625 33.894531 28.746094 33.167969 C 28.601563 32.4375 28.410156 31.597656 28.222656 30.796875 C 27.980469 29.773438 27.882813 29.410156 27.738281 28.851563 C 28.472656 28.554688 29 27.832031 29 27 L 29 25 C 29 24.269531 28.59375 23.632813 28 23.28125 L 28 10 L 45 10 C 45.5625 10 46 10.4375 46 11 L 46 43 C 46 43.5625 45.5625 44 45 44 L 5 44 C 4.4375 44 4 43.5625 4 43 L 4 11 C 4 10.433594 4.433594 10 5 10 Z M 24 10 L 26 10 L 26 14 L 25 14 L 25 16 L 26 16 L 26 20 L 25 20 L 25 22 L 26 22 L 26 23 L 24 23 L 24 19 L 25 19 L 25 17 L 24 17 L 24 13 L 25 13 L 25 11 L 24 11 Z M 23 25 L 27 25 L 27 27 L 23 27 Z M 24.28125 29 L 25.71875 29 C 25.839844 29.472656 26 30.070313 26.277344 31.253906 C 26.464844 32.042969 26.648438 32.863281 26.785156 33.554688 C 26.921875 34.246094 27 34.863281 27 34.960938 C 27 36.09375 26.097656 37 25 37 C 23.902344 37 23 36.09375 23 34.960938 C 23 34.863281 23.078125 34.246094 23.214844 33.554688 C 23.351563 32.863281 23.535156 32.042969 23.722656 31.253906 C 24 30.070313 24.160156 29.472656 24.28125 29 Z M 25 34 C 24.457031 34 24.011719 34.449219 24.015625 35 C 24.011719 35.550781 24.457031 36 25 36 C 25.542969 36 25.988281 35.550781 25.984375 35 C 25.988281 34.449219 25.542969 34 25 34 Z"/></svg>
